Origami/22x22/apps/dmd-doc.svg

<svg width="22" height="22" version="1" xmlns="http://www.w3.org/2000/svg">
 <path d="M 3.5,6 C 3.223,6 3,6.223 3,6.5 l 0,10 C 3,16.777 3.223,17 3.5,17 L 4.357422,17 4.5,17 8.642578,17 c 0.011075,0 0.02044,-0.0074 0.03125,-0.0088 A 5.5,5.5 0 0 0 14,11.5 5.5,5.5 0 0 0 8.663086,6.0058595 C 8.655921,6.005265 8.6498535,6 8.642578,6 L 4.5,6 4.357422,6 3.5,6 Z M 5,8 8.5,8 A 3.5,3.5 0 0 1 12,11.5 3.5,3.5 0 0 1 8.5,15 L 5,15 5,8 Z" style="opacity:.2"/>
 <rect transform="matrix(0,-1,-1,0,0,0)" x="-19" y="-21" width="16" height="20" rx="1" ry="1" style="fill:#c52f2f"/>
 <path d="m1 12v6c0 0.554 0.446 1 1 1h18c0.554 0 1-0.446 1-1v-2.631836c-6.135625-2.169481-15.018601-3.331866-20-3.368164z" style="opacity:.2"/>
 <path d="m2 3c-0.554 0-1 0.446-1 1v0.5c0-0.554 0.446-1 1-1h18c0.554 0 1 0.446 1 1v-0.5c0-0.554-0.446-1-1-1z" style="fill:#ffffff;opacity:.2"/>
 <path d="m1 18v0.5c0 0.554 0.446 1 1 1h18c0.554 0 1-0.446 1-1v-0.5c0 0.554-0.446 1-1 1h-18c-0.554 0-1-0.446-1-1z" style="opacity:.2"/>
 <path d="m18.00015 9.5c0 1.656854-1.343146 3-3 3-0.42762 0-0.834344-0.08947-1.202474-0.250708-1.058222-0.463498-0.490839-1.289466-0.490839-2.5187 0-0.575698-1.144527-1.344112-0.863392-1.8008755 0.527969-0.8578005 1.475548-1.4297165 2.556705-1.4297165 1.656854 0 3 1.343146 3 3z" style="opacity:.2"/>
 <path d="m18.00015 9c0 1.656854-1.343146 3-3 3-0.42762 0-0.834344-0.08947-1.202474-0.250708-1.058222-0.463498-0.490839-1.289466-0.490839-2.5187 0-0.5756975-1.144527-1.344112-0.863392-1.8008755 0.527969-0.8578005 1.475548-1.4297165 2.556705-1.4297165 1.656854 0 3 1.343146 3 3z" style="fill:#ff783e"/>
 <circle cx="19" cy="6.5" r="1" style="opacity:.2"/>
 <circle cx="19" cy="6" r="1" style="fill:#ffba46"/>
 <path d="m3.5454545 5.5c-0.3021818 0-0.5454545 0.2432727-0.5454545 0.5454545v10.90909c0 0.302182 0.2432727 0.545455 0.5454545 0.545455h0.9353695 0.1555396 4.5191764c0.01208 0 0.0223-0.0081 0.03409-0.0096 3.235704-0.102314 5.806807-2.753081 5.81037-5.9904-0.002029-3.2429736-2.58054-5.8974478-5.822088-5.9936078-0.007816-6.486e-4 -0.014435-0.0063922-0.022372-0.0063922h-4.5191764-0.1555396zm2.4545455 3h3c2.108724 0 3 0.891276 3 3s-1 3-3 3h-3z" style="opacity:.2"/>
 <path d="M 3.5454545,5 C 3.2432727,5 3,5.2432727 3,5.5454545 L 3,16.454545 C 3,16.756727 3.2432727,17 3.5454545,17 L 4.480824,17 4.6363636,17 9.15554,17 C 9.16762,17 9.17784,16.9919 9.18963,16.9904 12.425334,16.888086 14.996437,14.237319 15,11 14.997971,7.7570264 12.41946,5.1025522 9.177912,5.0063922 9.170096,5.0057436 9.163477,5 9.15554,5 L 4.6363636,5 4.480824,5 Z M 6,8 9,8 c 2.108724,0 3,0.8912763 3,3 0,2.108724 -1,3 -3,3 l -3,0 z" style="fill:#ffffff"/>
</svg>

<svg xmlns="http://www.w3.org/2000/svg" width="22" height="22" version="1">
 <path d="M 3.5,6 C 3.223,6 3,6.223 3,6.5 l 0,10 C 3,16.777 3.223,17 3.5,17 L 4.357422,17 4.5,17 8.642578,17 c 0.011075,0 0.02044,-0.0074 0.03125,-0.0088 A 5.5,5.5 0 0 0 14,11.5 5.5,5.5 0 0 0 8.663086,6.0058595 C 8.655921,6.005265 8.6498535,6 8.642578,6 L 4.5,6 4.357422,6 3.5,6 Z M 5,8 8.5,8 A 3.5,3.5 0 0 1 12,11.5 3.5,3.5 0 0 1 8.5,15 L 5,15 5,8 Z" style="opacity:0.2"/>
 <rect width="16" height="20" x="-19" y="-21" rx="1" ry="1" transform="matrix(0,-1,-1,0,0,0)" style="fill:#c52f2f"/>
 <path style="opacity:0.2" d="m 1,12 0,6 c 0,0.554 0.446,1 1,1 l 18,0 c 0.554,0 1,-0.446 1,-1 l 0,-2.631836 C 14.864375,13.198683 5.981399,12.036298 1,12 Z"/>
 <path d="M 2,3 C 1.446,3 1,3.446 1,4 l 0,0.5 c 0,-0.554 0.446,-1 1,-1 l 18,0 c 0.554,0 1,0.446 1,1 L 21,4 C 21,3.446 20.554,3 20,3 Z" style="opacity:0.2;fill:#ffffff"/>
 <path style="opacity:0.2" d="m 1,18 0,0.5 c 0,0.554 0.446,1 1,1 l 18,0 c 0.554,0 1,-0.446 1,-1 L 21,18 c 0,0.554 -0.446,1 -1,1 L 2,19 C 1.446,19 1,18.554 1,18 Z"/>
 <path d="m 18.00015,9.5 c 0,1.656854 -1.343146,3 -3,3 -0.42762,0 -0.834344,-0.08947 -1.202474,-0.250708 -1.058222,-0.463498 -0.490839,-1.289466 -0.490839,-2.5187 0,-0.575698 -1.144527,-1.344112 -0.863392,-1.8008755 C 12.971414,7.071916 13.918993,6.5 15.00015,6.5 c 1.656854,0 3,1.343146 3,3 z" style="opacity:0.2"/>
 <path style="fill:#ff783e" d="m 18.00015,9 c 0,1.656854 -1.343146,3 -3,3 -0.42762,0 -0.834344,-0.08947 -1.202474,-0.250708 -1.058222,-0.463498 -0.490839,-1.289466 -0.490839,-2.5187 0,-0.5756975 -1.144527,-1.344112 -0.863392,-1.8008755 C 12.971414,6.571916 13.918993,6 15.00015,6 c 1.656854,0 3,1.343146 3,3 z"/>
 <circle style="opacity:0.2" cx="19" cy="6.5" r="1"/>
 <circle cx="19" cy="6" r="1" style="fill:#ffba46"/>
 <path d="M 3.5454545,5.5 C 3.2432727,5.5 3,5.7432727 3,6.0454545 L 3,16.954545 C 3,17.256727 3.2432727,17.5 3.5454545,17.5 l 0.9353695,0 0.1555396,0 4.5191764,0 c 0.01208,0 0.0223,-0.0081 0.03409,-0.0096 C 12.425334,17.388086 14.996437,14.737319 15,11.5 14.997971,8.2570264 12.41946,5.6025522 9.177912,5.5063922 9.170096,5.5057436 9.163477,5.5 9.15554,5.5 l -4.5191764,0 -0.1555396,0 z M 6,8.5 l 3,0 c 2.108724,0 3,0.891276 3,3 0,2.108724 -1,3 -3,3 l -3,0 z" style="opacity:0.2"/>
 <path style="fill:#ffffff" d="M 3.5454545,5 C 3.2432727,5 3,5.2432727 3,5.5454545 L 3,16.454545 C 3,16.756727 3.2432727,17 3.5454545,17 L 4.480824,17 4.6363636,17 9.15554,17 C 9.16762,17 9.17784,16.9919 9.18963,16.9904 12.425334,16.888086 14.996437,14.237319 15,11 14.997971,7.7570264 12.41946,5.1025522 9.177912,5.0063922 9.170096,5.0057436 9.163477,5 9.15554,5 L 4.6363636,5 4.480824,5 Z M 6,8 9,8 c 2.108724,0 3,0.8912763 3,3 0,2.108724 -1,3 -3,3 l -3,0 z"/>
</svg>
